X: 15898
T: Gráinne's
R: jig
M: 6/8
K: Gmajor
|:"G"dGF GDB|G2D GAF|"Am"EcB AAG|"D7"FED cBA|
"G"B/c/dB G3|"C"EGG cGE|"G"D2c "D7"BAF|1 AGF "G"GA/B/c:|2 AGF "G"FGA||
|:"G"ABA Ggf|"Am"ecA EFG|"D7"FAd f2f|"A7"ed^c "D7"d3|
"G"BdB g2f|"Am"ecA E2G|"G"D2c "D7"BAF|1 AGF "G"G2A:|2 AGF "G"G3||
|:"G"GBd g3|"C"ecB c2B|"A7"A^ce a2g|"D"f/g/af dba|
"G"gdB Ggf|"Am"ecA EGG|"G"D2c "D7"BAF|1 AGF "G"G3:|2 AGF "G"GA/B/c||

